Newaita-dark/actions/22/mail-invitation.svg

<svg height="22" viewBox="0 0 22 22" width="22" xmlns="http://www.w3.org/2000/svg"><g fill="#e0e0e0"><path d="m16.371094 11.085938c1.007812 0 1.820312.816406 1.820312 1.820312s-.8125 1.820312-1.820312 1.820312c-1.003906 0-1.816406-.816406-1.816406-1.820312s.8125-1.820312 1.816406-1.820312zm0 0"/><path d="m14.292969 14.675781c-.941407.410157-1.558594 1.09375-1.558594 1.867188v.910156c0 .503906.40625.910156.910156.910156h5.457031c.503907 0 .910157-.40625.910157-.910156v-.910156c0-.773438-.617188-1.457031-1.558594-1.867188-.5.585938-1.246094.960938-2.082031.960938-.832032 0-1.578125-.375-2.078125-.960938zm0 0"/><path d="m18.191406 3.808594h-14.554687c-1.007813 0-1.816407.8125-1.816407 1.820312v10.914063c0 1.007812.808594 1.820312 1.816407 1.820312h7.277343v-1.820312h-6.367187c-.503906 0-.910156-.402344-.910156-.90625v-8.898438l6.675781 5.933594c.34375.304687.859375.304687 1.203125 0l6.675781-5.933594v2.53125h1.820313v-3.640625c0-1.007812-.8125-1.820312-1.820313-1.820312zm-13.078125 1.820312h11.601563l-5.800782 5.15625zm0 0"/></g></svg>

<?xml version="1.0" encoding="UTF-8"?>
<svg xmlns="http://www.w3.org/2000/svg" xmlns:xlink="http://www.w3.org/1999/xlink" width="22px" height="22px" viewBox="0 0 22 22" version="1.1">
<g id="surface1">
<path style=" stroke:none;fill-rule:nonzero;fill:rgb(87.843138%,87.843138%,87.843138%);fill-opacity:1;" d="M 16.371094 11.085938 C 17.378906 11.085938 18.191406 11.902344 18.191406 12.90625 C 18.191406 13.910156 17.378906 14.726562 16.371094 14.726562 C 15.367188 14.726562 14.554688 13.910156 14.554688 12.90625 C 14.554688 11.902344 15.367188 11.085938 16.371094 11.085938 Z M 16.371094 11.085938 "/>
<path style=" stroke:none;fill-rule:nonzero;fill:rgb(87.843138%,87.843138%,87.843138%);fill-opacity:1;" d="M 14.292969 14.675781 C 13.351562 15.085938 12.734375 15.769531 12.734375 16.542969 L 12.734375 17.453125 C 12.734375 17.957031 13.140625 18.363281 13.644531 18.363281 L 19.101562 18.363281 C 19.605469 18.363281 20.011719 17.957031 20.011719 17.453125 L 20.011719 16.542969 C 20.011719 15.769531 19.394531 15.085938 18.453125 14.675781 C 17.953125 15.261719 17.207031 15.636719 16.371094 15.636719 C 15.539062 15.636719 14.792969 15.261719 14.292969 14.675781 Z M 14.292969 14.675781 "/>
<path style=" stroke:none;fill-rule:nonzero;fill:rgb(87.843138%,87.843138%,87.843138%);fill-opacity:1;" d="M 18.191406 3.808594 L 3.636719 3.808594 C 2.628906 3.808594 1.820312 4.621094 1.820312 5.628906 L 1.820312 16.542969 C 1.820312 17.550781 2.628906 18.363281 3.636719 18.363281 L 10.914062 18.363281 L 10.914062 16.542969 L 4.546875 16.542969 C 4.042969 16.542969 3.636719 16.140625 3.636719 15.636719 L 3.636719 6.738281 L 10.3125 12.671875 C 10.65625 12.976562 11.171875 12.976562 11.515625 12.671875 L 18.191406 6.738281 L 18.191406 9.269531 L 20.011719 9.269531 L 20.011719 5.628906 C 20.011719 4.621094 19.199219 3.808594 18.191406 3.808594 Z M 5.113281 5.628906 L 16.714844 5.628906 L 10.914062 10.785156 Z M 5.113281 5.628906 "/>
</g>
</svg>
